X:1
T:Your Mother Loves You Still
T:Your Mother Loves You Still
T:Owen F. Pugh
T:S. Otis Roe, 1909
T:Public Domain Courtesy of the Cyber Hymnal™
C:Owen F. Pugh
Z:Public Domain
Z:Courtesy of the Cyber Hymnal™
%%score ( 1 2 ) ( 3 4 )
L:1/8
Q:1/4=100
M:4/4
K:G
V:1 treble 
V:2 treble 
V:3 bass 
V:4 bass 
V:1
 [B,D]2 | [DB]3 [DB] [CA]2 [B,G]2 | [B,G]4 [A,F]2 [CE]2 x | [B,D]3 [B,D] ([B,G][CA]) [DB]2 | %4
w: 1.~Tho’|far a- way you’ve|wan- dered, From|home and mo- * ther’s|
w: 2.~When-|e’er your name is|spok- en, Her|eyes with tears * are|
w: 3.~Your|mo- ther loves you|dear- ly, But|Je- sus loves * you|
w: 4.~While|now your friends are|pray- ing, He|waits, your heart * to|
 [CA]6 [Ec]2 | [DB]3 [^C^A] [DB]2 [=Fd]2 | [Ec]4 [CE]2 [Ec]2 | [DB]3 [B,G] [DB]2 [CA]2 | [B,G]6 || %9
w: God, Tho’|gold- en hours you’ve|squan- dered, And|paths of sin you’ve|trod,|
w: wet; Her|heart is al- most|brok- en, But|she can ne’er for-|get.|
w: more; His|voice, now call- ing|clear- ly, Has|called you oft be-|fore.|
w: fill; He’ll|keep your feet from|stray- ing, Your|Sav- ior loves you|still.|
"^Refrain" [B,D]2 | [B,D]3 [B,G] [DB]2 [Ec]2 | B6 [GB]2 | [Gc]3 [Gc] [G^c]2 [Gc]2 | %13
w: ||||
w: Your|mo- ther loves you|still; Your|mo- ther loves you|
w: Your|Sav- ior loves you|still, Your|Sav- ior loves you|
w: ||||
 !fermata!d6 !fermata![Ac]2 | [GB]3 [G^A] [GB]2 [Gd]2 | [EG]3 G !fermata![Gc]2 [Gc]2 | %16
w: |||
w: still, Tho’|o- ther friends may|prove un- true, Your|
w: still; Tho’|all the world may|prove un- true, Your|
w: |||
 [GB]G z2 [GB]3 [DA] | [DG]6 |] %18
w: ||
w: mo- ther loves you|still.|
w: Sav- ior loves you|still.|
w: ||
V:2
 x2 | x8 | x9 | x8 | x8 | x8 | x8 | x8 | x6 || x2 | x8 | (D2 D2 G2) x2 | x8 | (F2 G2 A2) x2 | x8 | %15
 x3 G x4 | x G x6 | x6 |] %18
V:3
 z2 | G,3 z (G,,D,)G, z | G,4 z D,,2 z2 | ([G,,G,]B,,D,) z [G,,G,]2 z2 | %4
w: |~ ~ * ~|~ ~|~ * * ~|
 ([F,D]2 [F,A,D]2 [A,CD]2) z2 | ([G,,G,]B,,D,) z [G,,G,]2 z2 | ([C,G,]E,G,) z [C,G,]2 [C,G,]2 | %7
w: ~ * *|~ * * ~|~ * * ~ ~|
 [D,G,]3 [D,G,] ([D,G,][D,G,]) ([D,F,][D,F,]) | [G,,G,]6 || G,2 | G,3 G, G,2 G,2 | %11
w: ~ ~ ~ * ~ *|~|~|~ ~ ~ ~|
 G,2 B,2 D2 [G,D]2 | [C,E]3 [C,E] [A,,E]2 [A,,A,]2 | A,2 B,2 C2 [D,D]2 | %14
w: loves you still. ~|~ ~ ~ ~|loves you still; *|
 [G,D]3 [G,^C] [G,D]2 [B,,D]2 | [C,C]3 [C,E] [C,E]2 [C,E]2 | [D,D][D,B,] z2 [D,D]3 [D,C] | %17
w: |||
 [G,,G,B,]6 |] %18
w: |
V:4
 x2 | (G,,B,,D,) x5 | (G,,B,,D,) x6 | x8 | D,6 x2 | x8 | x8 | x8 | x6 || G,2 | G,3 G, G,2 G,2 | %11
 G,6 x2 | x8 | D,6 x2 | x8 | x8 | x8 | x6 |] %18

